frontend/public/svg/hand gestures/point-right.svg

<svg width="138" height="114" viewBox="0 0 138 114" fill="none" xmlns="http://www.w3.org/2000/svg">
<path d="M17.9455 101.858C22.5309 105.015 27.6519 107.312 33.0589 108.637C44.151 111.328 53.7288 112.613 62.7909 112.613C64.3796 112.613 65.955 112.574 67.5167 112.495C71.1337 112.255 74.6924 111.46 78.068 110.138C83.3659 108.149 86.2138 102.978 85.1564 97.2693C84.8236 95.8378 84.3137 94.4536 83.6376 93.1488C83.3961 92.6303 83.1474 92.0987 82.9229 91.5618C91.704 85.0522 92.8671 80.0759 87.6308 71.3466C90.0107 69.7346 92.254 67.7525 92.9248 64.3973C93.5726 61.1589 92.2645 58.5867 90.4038 55.6516C91.6633 55.5695 92.8979 55.4973 94.1082 55.4264C97.147 55.2479 100.015 55.0786 102.903 54.7931L105.427 54.5456C111.415 53.9602 117.606 53.355 123.638 52.3797C126.546 51.9091 129.316 50.5032 131.996 49.1433L132.142 49.0685C135.478 47.3771 137.074 44.8614 136.758 41.7956C136.361 37.9331 134.373 35.1417 131.162 33.9353C128.736 33.1276 126.229 32.583 123.686 32.3109L122.914 32.1993C121.661 32.0505 120.399 31.9989 119.139 32.045C118.588 32.051 118.036 32.0575 117.488 32.045C114.929 31.9965 112.369 31.9413 109.808 31.8797C103.941 31.7484 97.8729 31.6086 91.9029 31.5876C87.279 31.5699 82.705 31.69 77.8573 31.816C75.9007 31.8665 73.9133 31.9184 71.8846 31.9617L72.2817 31.4419C72.726 30.861 73.0693 30.4075 73.404 29.9421C77.3355 24.4181 79.1253 17.6539 78.4414 10.9083C78.0857 6.57127 76.1652 3.71358 72.7313 2.41469C68.5373 0.828976 64.8099 1.38883 61.6497 4.08047C60.9778 4.6785 60.3455 5.31933 59.7563 5.99895C59.2402 6.58975 58.6937 7.15342 58.1193 7.6877C57.1052 8.59672 56.0943 9.55038 55.1164 10.4732C52.6143 12.9812 49.8959 15.2638 46.9929 17.2945C43.6312 19.3953 40.1535 21.3047 36.5768 23.0138C34.6399 23.9839 32.6389 24.9874 30.7053 26.0396C26.1766 28.5067 21.3596 31.159 16.6786 34.0804C14.7548 35.3129 13.0669 36.8795 11.6946 38.7062C1.46556 52.1132 -1.26438 66.743 3.58202 82.1893C5.96597 90.2018 11.0387 97.1485 17.9455 101.858ZM57.8318 34.3088C57.8239 35.991 58.8818 37.2249 60.7385 37.6942C61.7432 37.9396 62.7742 38.0618 63.8084 38.0578C66.1601 38.065 70.8909 38.0446 76.8787 38.0184C91.6962 37.9527 114.087 37.8556 122.04 38.1116C123.928 38.2029 125.807 38.4253 127.665 38.7771C128.499 38.9265 129.29 39.2579 129.981 39.7478C131.027 40.5066 131.575 41.3742 131.525 42.1914C131.478 42.956 130.918 43.657 129.905 44.2168C127.789 45.4089 125.511 46.2908 123.145 46.8356C119.755 47.5498 116.316 48.009 112.857 48.2093C109.29 48.4318 105.654 48.5506 102.137 48.6688C99.6976 48.7482 97.1753 48.8302 94.6956 48.9464C90.5023 49.1433 85.9079 49.4268 80.2358 49.8377C77.9472 50.0038 76.6096 51.0191 76.4685 52.6902C76.2794 54.9217 77.9728 55.7572 79.3334 56.4313C79.8158 56.6695 80.3041 56.9025 80.7931 57.1368C82.7286 57.9753 84.5683 59.02 86.2801 60.2531C87.5192 61.2239 88.1224 62.467 87.9347 63.6661C87.7424 64.8934 86.7533 65.9206 85.2266 66.4844C83.7886 66.9301 82.2974 67.1801 80.7924 67.228C80.3172 67.2655 79.8427 67.3029 79.3741 67.3508C78.8385 67.3875 78.3016 67.3737 77.7687 67.3088C77.4208 67.2786 77.0723 67.2484 76.7251 67.2431H76.6279C74.9799 67.2431 73.9626 68.0222 73.6823 69.5016C73.3679 71.1615 74.1641 72.3665 75.9244 72.8929C76.2486 72.99 76.5807 73.0603 76.9154 73.1298C77.3447 73.2066 77.7673 73.3182 78.1782 73.4639C78.6061 73.6293 79.038 73.7921 79.4705 73.9489C80.925 74.4392 82.3341 75.0542 83.6829 75.7867C85.8488 77.0541 86.3608 78.5591 85.5056 81.1522C84.592 83.9246 82.7706 85.593 80.0908 86.1129C78.5162 86.3767 76.9246 86.5283 75.3291 86.5657L74.4548 86.6084C72.9091 86.6898 70.9854 86.7902 70.3579 88.9535C69.7331 91.1069 71.2217 92.1958 72.6656 93.0464L72.9977 93.2433C74.1207 93.9042 75.2825 94.5875 76.3497 95.3515C78.6757 97.0159 79.5375 98.5951 79.2303 100.63C78.8956 102.853 77.1524 103.751 75.0796 104.616C69.995 106.664 64.4703 107.374 59.033 106.68C52.9947 106.014 46.4363 105.067 38.3942 103.697C32.3364 102.571 26.612 100.089 21.6486 96.4377C16.8455 93.0287 13.3131 87.8397 11.1472 81.0072C7.01688 67.9677 9.24752 55.3044 17.776 43.3682C18.5803 42.1991 19.5848 41.1811 20.7433 40.3615C23.2065 38.7115 26.4724 36.5823 29.8907 34.7492C34.611 32.2177 39.4656 29.7807 44.3192 27.5058C53.399 23.2495 60.3881 17.9338 65.688 11.2536C66.437 10.3194 67.3381 9.51835 68.3542 8.8842C68.8838 8.52466 69.5034 8.32014 70.1433 8.2935C70.3658 8.29297 70.587 8.32592 70.7997 8.39129C71.2447 8.57205 71.6457 8.84613 71.9758 9.19511C72.306 9.54408 72.5573 9.95974 72.7129 10.4141C74.2428 13.8973 73.3417 17.3713 72.3847 20.0124C69.9943 26.6093 66.3372 30.1259 60.875 31.0776C58.9474 31.4058 57.8384 32.5872 57.8318 34.3088Z" fill="black"/>
</svg>

<svg xmlns="http://www.w3.org/2000/svg" width="138" height="114" fill="none" viewBox="0 0 138 114"><path fill="#000" d="M17.946 101.858a45.9 45.9 0 0 0 15.113 6.779c11.092 2.691 20.67 3.976 29.732 3.976q2.383 0 4.726-.118a35.4 35.4 0 0 0 10.551-2.357c5.298-1.989 8.146-7.16 7.088-12.869a17.6 17.6 0 0 0-1.518-4.12c-.242-.519-.49-1.05-.715-1.587 8.781-6.51 9.944-11.486 4.708-20.215 2.38-1.612 4.623-3.594 5.294-6.95.648-3.238-.66-5.81-2.521-8.745 1.26-.083 2.494-.155 3.704-.226 3.039-.178 5.907-.347 8.795-.633l2.524-.247c5.988-.586 12.179-1.191 18.211-2.166 2.908-.47 5.678-1.877 8.358-3.237l.146-.075c3.336-1.69 4.932-4.207 4.616-7.272-.397-3.863-2.385-6.654-5.596-7.86a35.7 35.7 0 0 0-7.476-1.625l-.772-.112a24.4 24.4 0 0 0-3.775-.154c-.551.006-1.103.012-1.651 0q-3.838-.074-7.68-.165c-5.867-.132-11.935-.271-17.905-.292-4.624-.018-9.198.102-14.046.228-1.956.05-3.944.102-5.972.146l.397-.52a65 65 0 0 0 1.122-1.5 27.96 27.96 0 0 0 5.037-19.034c-.355-4.337-2.276-7.194-5.71-8.493C68.537.829 64.81 1.389 61.65 4.08A21 21 0 0 0 59.756 6a23 23 0 0 1-1.637 1.689 161 161 0 0 0-3.003 2.785 60.3 60.3 0 0 1-8.123 6.821 106 106 0 0 1-10.416 5.72c-1.937.97-3.938 1.973-5.872 3.026-4.528 2.467-9.345 5.119-14.026 8.04a19.2 19.2 0 0 0-4.984 4.626C1.465 52.113-1.265 66.743 3.582 82.19a36.35 36.35 0 0 0 14.363 19.669m39.886-67.55c-.008 1.683 1.05 2.917 2.907 3.386 1.004.246 2.035.368 3.07.364 2.351.007 7.082-.013 13.07-.04 14.817-.065 37.208-.162 45.161.094 1.888.09 3.767.313 5.625.665.834.15 1.625.48 2.316.97 1.046.76 1.594 1.627 1.544 2.444-.047.765-.607 1.466-1.62 2.026a25.4 25.4 0 0 1-6.76 2.619 69 69 0 0 1-10.288 1.373c-3.567.223-7.203.342-10.72.46-2.44.08-4.962.161-7.441.277-4.194.197-8.788.48-14.46.892-2.289.166-3.626 1.181-3.767 2.852-.19 2.232 1.504 3.067 2.864 3.741q.726.357 1.46.706a29.4 29.4 0 0 1 5.487 3.116c1.24.97 1.842 2.214 1.655 3.413-.193 1.227-1.182 2.255-2.708 2.818a16.8 16.8 0 0 1-4.435.744c-.475.038-.95.075-1.418.123a8.5 8.5 0 0 1-1.605-.042c-.348-.03-.697-.06-1.044-.066h-.097c-1.648 0-2.665.78-2.946 2.259-.314 1.66.482 2.865 2.242 3.39.325.098.657.168.991.238q.646.115 1.263.334.643.249 1.293.485a26.7 26.7 0 0 1 4.212 1.838c2.166 1.267 2.678 2.772 1.823 5.365-.914 2.773-2.735 4.441-5.415 4.96a33.6 33.6 0 0 1-4.762.454l-.874.042c-1.546.082-3.47.182-4.097 2.346-.625 2.153.864 3.242 2.308 4.092l.332.197c1.123.661 2.284 1.345 3.352 2.109 2.326 1.664 3.188 3.243 2.88 5.278-.334 2.223-2.078 3.121-4.15 3.986a32.1 32.1 0 0 1-16.047 2.064c-6.038-.666-12.597-1.613-20.639-2.983a40.86 40.86 0 0 1-16.745-7.26c-4.803-3.408-8.336-8.597-10.502-15.43-4.13-13.04-1.9-25.703 6.629-37.639a12 12 0 0 1 2.967-3.007c2.464-1.65 5.73-3.779 9.148-5.612a301 301 0 0 1 14.428-7.243c9.08-4.256 16.07-9.572 21.369-16.252a10.6 10.6 0 0 1 2.666-2.37 3.44 3.44 0 0 1 1.79-.59q.335-.001.656.097a3.36 3.36 0 0 1 1.913 2.023c1.53 3.483.629 6.957-.328 9.598-2.39 6.597-6.048 10.114-11.51 11.066-1.928.328-3.037 1.51-3.043 3.23"/></svg>
